report_00007_2020-12-11T15:55:29.892Z/cumulative-layout-shift/samples/pages+cached+noexternal+nofonts+nosvg+noimg/raw/values.svg

<svg width="640" height="490" xmlns="http://www.w3.org/2000/svg" xmlns:xlink="http://www.w3.org/1999/xlink"><path fill="#fff" d="M0 0h640v490H0z"/><defs><path id="d" stroke-width=".222" stroke="currentColor" d="M-1-1h2v2h-2z"/><path id="b" stroke-width=".222" stroke="currentColor" d="M0-1.33l-1.33 2h2.66z"/><path id="f" stroke-width=".222" stroke="currentColor" d="M0 1.33L1.265.411.782-1.067l-1.564-.009-.483 1.487z"/><use xlink:href="#b" id="c" stroke="currentColor" transform="rotate(180)"/><use xlink:href="#d" id="e" stroke="currentColor" transform="rotate(45)"/><circle id="a" stroke-width=".222" stroke="currentColor" cx="0" cy="0" r="1"/></defs><g fill="none" color="#000" stroke="currentColor"><path stroke="#000" d="M62.2 412.1h9m543.8 0h-9"/><text transform="translate(53.9 416)" stroke="none" fill="#000" font-family="Arial" font-size="12" text-anchor="end"><tspan>0.05</tspan></text></g><g fill="none" color="#000" stroke="currentColor"><path stroke="#000" d="M62.2 340.3h9m543.8 0h-9"/><text transform="translate(53.9 344.2)" stroke="none" fill="#000" font-family="Arial" font-size="12" text-anchor="end"><tspan>0.1</tspan></text></g><g fill="none" color="#000" stroke="currentColor"><path stroke="#000" d="M62.2 268.5h9m543.8 0h-9"/><text transform="translate(53.9 272.4)" stroke="none" fill="#000" font-family="Arial" font-size="12" text-anchor="end"><tspan>0.15</tspan></text></g><g fill="none" color="#000" stroke="currentColor"><path stroke="#000" d="M62.2 196.7h9m543.8 0h-9"/><text transform="translate(53.9 200.6)" stroke="none" fill="#000" font-family="Arial" font-size="12" text-anchor="end"><tspan>0.2</tspan></text></g><g fill="none" color="#000" stroke="currentColor"><path stroke="#000" d="M62.2 124.9h9m543.8 0h-9"/><text transform="translate(53.9 128.8)" stroke="none" fill="#000" font-family="Arial" font-size="12" text-anchor="end"><tspan>0.25</tspan></text></g><g fill="none" color="#000" stroke="currentColor"><path stroke="#000" d="M62.2 53.1h9m543.8 0h-9"/><text transform="translate(53.9 57)" stroke="none" fill="#000" font-family="Arial" font-size="12" text-anchor="end"><tspan>0.3</tspan></text></g><g fill="none" color="#000" stroke="currentColor"><path stroke="#000" d="M62.2 436v-9m0-408.9v9"/><text transform="translate(62.2 457.9)" stroke="none" fill="#000" font-family="Arial" font-size="12" text-anchor="middle"><tspan>0</tspan></text></g><g fill="none" color="#000" stroke="currentColor"><path stroke="#000" d="M118 436v-9m0-408.9v9"/><text transform="translate(118 457.9)" stroke="none" fill="#000" font-family="Arial" font-size="12" text-anchor="middle"><tspan>10</tspan></text></g><g fill="none" color="#000" stroke="currentColor"><path stroke="#000" d="M173.9 436v-9m0-408.9v9"/><text transform="translate(173.9 457.9)" stroke="none" fill="#000" font-family="Arial" font-size="12" text-anchor="middle"><tspan>20</tspan></text></g><g fill="none" color="#000" stroke="currentColor"><path stroke="#000" d="M229.7 436v-9m0-408.9v9"/><text transform="translate(229.7 457.9)" stroke="none" fill="#000" font-family="Arial" font-size="12" text-anchor="middle"><tspan>30</tspan></text></g><g fill="none" color="#000" stroke="currentColor"><path stroke="#000" d="M285.6 436v-9m0-408.9v9"/><text transform="translate(285.6 457.9)" stroke="none" fill="#000" font-family="Arial" font-size="12" text-anchor="middle"><tspan>40</tspan></text></g><g fill="none" color="#000" stroke="currentColor"><path stroke="#000" d="M341.4 436v-9m0-408.9v9"/><text transform="translate(341.4 457.9)" stroke="none" fill="#000" font-family="Arial" font-size="12" text-anchor="middle"><tspan>50</tspan></text></g><g fill="none" color="#000" stroke="currentColor"><path stroke="#000" d="M397.2 436v-9m0-408.9v9"/><text transform="translate(397.2 457.9)" stroke="none" fill="#000" font-family="Arial" font-size="12" text-anchor="middle"><tspan>60</tspan></text></g><g fill="none" color="#000" stroke="currentColor"><path stroke="#000" d="M453.1 436v-9m0-408.9v9"/><text transform="translate(453.1 457.9)" stroke="none" fill="#000" font-family="Arial" font-size="12" text-anchor="middle"><tspan>70</tspan></text></g><g fill="none" color="#000" stroke="currentColor"><path stroke="#000" d="M508.9 436v-9m0-408.9v9"/><text transform="translate(508.9 457.9)" stroke="none" fill="#000" font-family="Arial" font-size="12" text-anchor="middle"><tspan>80</tspan></text></g><g fill="none" color="#000" stroke="currentColor"><path stroke="#000" d="M564.7 436v-9m0-408.9v9"/><text transform="translate(564.7 457.9)" stroke="none" fill="#000" font-family="Arial" font-size="12" text-anchor="middle"><tspan>90</tspan></text></g><path stroke="#000" d="M62.2 18.1V436H615V18.1H62.2z" fill="none" color="#000"/><text transform="translate(179.8 475.9)" stroke="none" fill="#000" font-family="Arial" font-size="12" text-anchor="end" color="#000"><tspan>raw</tspan></text><path stroke="#9400D3" d="M188.1 472h42.2M62.2 201.5h11.2L79 26.1l5.5 175.4h5.6L95.7 428l5.6-226.5h33.5l5.6 226.5L146 26.1l5.5 358.5 5.6-183.1h5.6l5.6-12.4 5.6 238.9 5.6-226.5 5.5-12.4h11.2l5.6 12.4h5.6l5.6-12.4 5.5 12.4h5.6l5.6 183.1 5.6 43.4 5.6-238.9h5.6l5.6 12.4 5.5-43.4 5.6 43.4h5.6l5.6-137.9 5.6 137.9h16.7l5.6-43.4 5.6 226.5 5.6 43.4 5.6-226.5 5.5-12.4 5.6 12.4h5.6l5.6 226.5 5.6-226.5 5.6-12.4 5.5 12.4h11.2l5.6-175.4 5.6 163 5.6 12.4 5.5 183.1 5.6-195.5 5.6 238.9 5.6-401.9L414 428l5.6-238.9 5.5-43.3 5.6 282.2 5.6-269.9 5.6 43.4 5.6-12.4 5.6-31h5.6l5.5 269.9 5.6-282.2 5.6 238.8 5.6-183.1 5.6-12.4 5.6 238.9 5.5-226.5 5.6-175.4 5.6 175.4 5.6 226.5h5.6l5.6-401.9 5.5 175.4h11.2l5.6-55.7 5.6-119.7h5.6l5.5 401.9 5.6-269.9 5.6 43.4H598.2l5.6 183.1 5.6-183.1L615 428" fill="none" color="#000"/><text transform="translate(379.7 475.9)" stroke="none" fill="#000" font-family="Arial" font-size="12" text-anchor="end" color="#000"><tspan>score p10=0.1</tspan></text><path stroke="#009E73" d="M388 472h42.2m-368-131.7H615" fill="none" color="#000"/><text transform="translate(579.6 475.9)" stroke="none" fill="#000" font-family="Arial" font-size="12" text-anchor="end" color="#000"><tspan>score median=0.25</tspan></text><path stroke="#56B4E9" d="M587.9 472h42.2M62.2 124.9H615" fill="none" color="#000"/><g fill="none" color="#000" stroke="currentColor"><path stroke="#000" d="M62.2 18.1V436H615V18.1H62.2z"/></g></svg>

<?xml version="1.0" encoding="utf-8"  standalone="no"?>
<svg 
 width="640" height="490"
 viewBox="0 0 640 490"
 xmlns="http://www.w3.org/2000/svg"
 xmlns:xlink="http://www.w3.org/1999/xlink"
>

<title>Gnuplot</title>
<desc>Produced by GNUPLOT 5.4 patchlevel 0 </desc>

<g id="gnuplot_canvas">

<rect x="0" y="0" width="640" height="490" fill="#ffffff"/>
<defs>

	<circle id='gpDot' r='0.5' stroke-width='0.5' stroke='currentColor'/>
	<path id='gpPt0' stroke-width='0.222' stroke='currentColor' d='M-1,0 h2 M0,-1 v2'/>
	<path id='gpPt1' stroke-width='0.222' stroke='currentColor' d='M-1,-1 L1,1 M1,-1 L-1,1'/>
	<path id='gpPt2' stroke-width='0.222' stroke='currentColor' d='M-1,0 L1,0 M0,-1 L0,1 M-1,-1 L1,1 M-1,1 L1,-1'/>
	<rect id='gpPt3' stroke-width='0.222' stroke='currentColor' x='-1' y='-1' width='2' height='2'/>
	<rect id='gpPt4' stroke-width='0.222' stroke='currentColor' fill='currentColor' x='-1' y='-1' width='2' height='2'/>
	<circle id='gpPt5' stroke-width='0.222' stroke='currentColor' cx='0' cy='0' r='1'/>
	<use xlink:href='#gpPt5' id='gpPt6' fill='currentColor' stroke='none'/>
	<path id='gpPt7' stroke-width='0.222' stroke='currentColor' d='M0,-1.33 L-1.33,0.67 L1.33,0.67 z'/>
	<use xlink:href='#gpPt7' id='gpPt8' fill='currentColor' stroke='none'/>
	<use xlink:href='#gpPt7' id='gpPt9' stroke='currentColor' transform='rotate(180)'/>
	<use xlink:href='#gpPt9' id='gpPt10' fill='currentColor' stroke='none'/>
	<use xlink:href='#gpPt3' id='gpPt11' stroke='currentColor' transform='rotate(45)'/>
	<use xlink:href='#gpPt11' id='gpPt12' fill='currentColor' stroke='none'/>
	<path id='gpPt13' stroke-width='0.222' stroke='currentColor' d='M0,1.330 L1.265,0.411 L0.782,-1.067 L-0.782,-1.076 L-1.265,0.411 z'/>
	<use xlink:href='#gpPt13' id='gpPt14' fill='currentColor' stroke='none'/>
	<filter id='textbox' filterUnits='objectBoundingBox' x='0' y='0' height='1' width='1'>
	  <feFlood flood-color='#FFFFFF' flood-opacity='1' result='bgnd'/>
	  <feComposite in='SourceGraphic' in2='bgnd' operator='atop'/>
	</filter>
	<filter id='greybox' filterUnits='objectBoundingBox' x='0' y='0' height='1' width='1'>
	  <feFlood flood-color='lightgrey' flood-opacity='1' result='grey'/>
	  <feComposite in='SourceGraphic' in2='grey' operator='atop'/>
	</filter>
</defs>
<g fill="none" color="#FFFFFF" stroke="black" stroke-width="1.00" stroke-linecap="butt" stroke-linejoin="miter">
</g>
<g fill="none" color="black" stroke="currentColor" stroke-width="1.00" stroke-linecap="butt" stroke-linejoin="miter">
	<path stroke='black'  d='M62.2,412.1 L71.2,412.1 M615.0,412.1 L606.0,412.1  '/>	<g transform="translate(53.9,416.0)" stroke="none" fill="black" font-family="Arial" font-size="12.00"  text-anchor="end">
		<text><tspan font-family="Arial" > 0.05</tspan></text>
	</g>
</g>
<g fill="none" color="black" stroke="currentColor" stroke-width="1.00" stroke-linecap="butt" stroke-linejoin="miter">
	<path stroke='black'  d='M62.2,340.3 L71.2,340.3 M615.0,340.3 L606.0,340.3  '/>	<g transform="translate(53.9,344.2)" stroke="none" fill="black" font-family="Arial" font-size="12.00"  text-anchor="end">
		<text><tspan font-family="Arial" > 0.1</tspan></text>
	</g>
</g>
<g fill="none" color="black" stroke="currentColor" stroke-width="1.00" stroke-linecap="butt" stroke-linejoin="miter">
	<path stroke='black'  d='M62.2,268.5 L71.2,268.5 M615.0,268.5 L606.0,268.5  '/>	<g transform="translate(53.9,272.4)" stroke="none" fill="black" font-family="Arial" font-size="12.00"  text-anchor="end">
		<text><tspan font-family="Arial" > 0.15</tspan></text>
	</g>
</g>
<g fill="none" color="black" stroke="currentColor" stroke-width="1.00" stroke-linecap="butt" stroke-linejoin="miter">
	<path stroke='black'  d='M62.2,196.7 L71.2,196.7 M615.0,196.7 L606.0,196.7  '/>	<g transform="translate(53.9,200.6)" stroke="none" fill="black" font-family="Arial" font-size="12.00"  text-anchor="end">
		<text><tspan font-family="Arial" > 0.2</tspan></text>
	</g>
</g>
<g fill="none" color="black" stroke="currentColor" stroke-width="1.00" stroke-linecap="butt" stroke-linejoin="miter">
	<path stroke='black'  d='M62.2,124.9 L71.2,124.9 M615.0,124.9 L606.0,124.9  '/>	<g transform="translate(53.9,128.8)" stroke="none" fill="black" font-family="Arial" font-size="12.00"  text-anchor="end">
		<text><tspan font-family="Arial" > 0.25</tspan></text>
	</g>
</g>
<g fill="none" color="black" stroke="currentColor" stroke-width="1.00" stroke-linecap="butt" stroke-linejoin="miter">
	<path stroke='black'  d='M62.2,53.1 L71.2,53.1 M615.0,53.1 L606.0,53.1  '/>	<g transform="translate(53.9,57.0)" stroke="none" fill="black" font-family="Arial" font-size="12.00"  text-anchor="end">
		<text><tspan font-family="Arial" > 0.3</tspan></text>
	</g>
</g>
<g fill="none" color="black" stroke="currentColor" stroke-width="1.00" stroke-linecap="butt" stroke-linejoin="miter">
	<path stroke='black'  d='M62.2,436.0 L62.2,427.0 M62.2,18.1 L62.2,27.1  '/>	<g transform="translate(62.2,457.9)" stroke="none" fill="black" font-family="Arial" font-size="12.00"  text-anchor="middle">
		<text><tspan font-family="Arial" > 0</tspan></text>
	</g>
</g>
<g fill="none" color="black" stroke="currentColor" stroke-width="1.00" stroke-linecap="butt" stroke-linejoin="miter">
	<path stroke='black'  d='M118.0,436.0 L118.0,427.0 M118.0,18.1 L118.0,27.1  '/>	<g transform="translate(118.0,457.9)" stroke="none" fill="black" font-family="Arial" font-size="12.00"  text-anchor="middle">
		<text><tspan font-family="Arial" > 10</tspan></text>
	</g>
</g>
<g fill="none" color="black" stroke="currentColor" stroke-width="1.00" stroke-linecap="butt" stroke-linejoin="miter">
	<path stroke='black'  d='M173.9,436.0 L173.9,427.0 M173.9,18.1 L173.9,27.1  '/>	<g transform="translate(173.9,457.9)" stroke="none" fill="black" font-family="Arial" font-size="12.00"  text-anchor="middle">
		<text><tspan font-family="Arial" > 20</tspan></text>
	</g>
</g>
<g fill="none" color="black" stroke="currentColor" stroke-width="1.00" stroke-linecap="butt" stroke-linejoin="miter">
	<path stroke='black'  d='M229.7,436.0 L229.7,427.0 M229.7,18.1 L229.7,27.1  '/>	<g transform="translate(229.7,457.9)" stroke="none" fill="black" font-family="Arial" font-size="12.00"  text-anchor="middle">
		<text><tspan font-family="Arial" > 30</tspan></text>
	</g>
</g>
<g fill="none" color="black" stroke="currentColor" stroke-width="1.00" stroke-linecap="butt" stroke-linejoin="miter">
	<path stroke='black'  d='M285.6,436.0 L285.6,427.0 M285.6,18.1 L285.6,27.1  '/>	<g transform="translate(285.6,457.9)" stroke="none" fill="black" font-family="Arial" font-size="12.00"  text-anchor="middle">
		<text><tspan font-family="Arial" > 40</tspan></text>
	</g>
</g>
<g fill="none" color="black" stroke="currentColor" stroke-width="1.00" stroke-linecap="butt" stroke-linejoin="miter">
	<path stroke='black'  d='M341.4,436.0 L341.4,427.0 M341.4,18.1 L341.4,27.1  '/>	<g transform="translate(341.4,457.9)" stroke="none" fill="black" font-family="Arial" font-size="12.00"  text-anchor="middle">
		<text><tspan font-family="Arial" > 50</tspan></text>
	</g>
</g>
<g fill="none" color="black" stroke="currentColor" stroke-width="1.00" stroke-linecap="butt" stroke-linejoin="miter">
	<path stroke='black'  d='M397.2,436.0 L397.2,427.0 M397.2,18.1 L397.2,27.1  '/>	<g transform="translate(397.2,457.9)" stroke="none" fill="black" font-family="Arial" font-size="12.00"  text-anchor="middle">
		<text><tspan font-family="Arial" > 60</tspan></text>
	</g>
</g>
<g fill="none" color="black" stroke="currentColor" stroke-width="1.00" stroke-linecap="butt" stroke-linejoin="miter">
	<path stroke='black'  d='M453.1,436.0 L453.1,427.0 M453.1,18.1 L453.1,27.1  '/>	<g transform="translate(453.1,457.9)" stroke="none" fill="black" font-family="Arial" font-size="12.00"  text-anchor="middle">
		<text><tspan font-family="Arial" > 70</tspan></text>
	</g>
</g>
<g fill="none" color="black" stroke="currentColor" stroke-width="1.00" stroke-linecap="butt" stroke-linejoin="miter">
	<path stroke='black'  d='M508.9,436.0 L508.9,427.0 M508.9,18.1 L508.9,27.1  '/>	<g transform="translate(508.9,457.9)" stroke="none" fill="black" font-family="Arial" font-size="12.00"  text-anchor="middle">
		<text><tspan font-family="Arial" > 80</tspan></text>
	</g>
</g>
<g fill="none" color="black" stroke="currentColor" stroke-width="1.00" stroke-linecap="butt" stroke-linejoin="miter">
	<path stroke='black'  d='M564.7,436.0 L564.7,427.0 M564.7,18.1 L564.7,27.1  '/>	<g transform="translate(564.7,457.9)" stroke="none" fill="black" font-family="Arial" font-size="12.00"  text-anchor="middle">
		<text><tspan font-family="Arial" > 90</tspan></text>
	</g>
</g>
<g fill="none" color="black" stroke="currentColor" stroke-width="1.00" stroke-linecap="butt" stroke-linejoin="miter">
</g>
<g fill="none" color="black" stroke="currentColor" stroke-width="1.00" stroke-linecap="butt" stroke-linejoin="miter">
	<path stroke='black'  d='M62.2,18.1 L62.2,436.0 L615.0,436.0 L615.0,18.1 L62.2,18.1 Z  '/></g>
<g fill="none" color="black" stroke="currentColor" stroke-width="1.00" stroke-linecap="butt" stroke-linejoin="miter">
</g>
	<g id="gnuplot_plot_1" ><title>raw</title>
<g fill="none" color="black" stroke="currentColor" stroke-width="1.00" stroke-linecap="butt" stroke-linejoin="miter">
	<g transform="translate(179.8,475.9)" stroke="none" fill="black" font-family="Arial" font-size="12.00"  text-anchor="end">
		<text><tspan font-family="Arial" >raw</tspan></text>
	</g>
</g>
<g fill="none" color="black" stroke="currentColor" stroke-width="1.00" stroke-linecap="butt" stroke-linejoin="miter">
	<path stroke='rgb(148,   0, 211)'  d='M188.1,472.0 L230.3,472.0 M62.2,201.5 L67.8,201.5 L73.4,201.5 L79.0,26.1 L84.5,201.5 L90.1,201.5
		L95.7,428.0 L101.3,201.5 L106.9,201.5 L112.5,201.5 L118.0,201.5 L123.6,201.5 L129.2,201.5 L134.8,201.5
		L140.4,428.0 L146.0,26.1 L151.5,384.6 L157.1,201.5 L162.7,201.5 L168.3,189.1 L173.9,428.0 L179.5,201.5
		L185.0,189.1 L190.6,189.1 L196.2,189.1 L201.8,201.5 L207.4,201.5 L213.0,189.1 L218.5,201.5 L224.1,201.5
		L229.7,384.6 L235.3,428.0 L240.9,189.1 L246.5,189.1 L252.1,201.5 L257.6,158.1 L263.2,201.5 L268.8,201.5
		L274.4,63.6 L280.0,201.5 L285.6,201.5 L291.1,201.5 L296.7,201.5 L302.3,158.1 L307.9,384.6 L313.5,428.0
		L319.1,201.5 L324.6,189.1 L330.2,201.5 L335.8,201.5 L341.4,428.0 L347.0,201.5 L352.6,189.1 L358.1,201.5
		L363.7,201.5 L369.3,201.5 L374.9,26.1 L380.5,189.1 L386.1,201.5 L391.6,384.6 L397.2,189.1 L402.8,428.0
		L408.4,26.1 L414.0,428.0 L419.6,189.1 L425.1,145.8 L430.7,428.0 L436.3,158.1 L441.9,201.5 L447.5,189.1
		L453.1,158.1 L458.7,158.1 L464.2,428.0 L469.8,145.8 L475.4,384.6 L481.0,201.5 L486.6,189.1 L492.2,428.0
		L497.7,201.5 L503.3,26.1 L508.9,201.5 L514.5,428.0 L520.1,428.0 L525.7,26.1 L531.2,201.5 L536.8,201.5
		L542.4,201.5 L548.0,145.8 L553.6,26.1 L559.2,26.1 L564.7,428.0 L570.3,158.1 L575.9,201.5 L581.5,201.5
		L587.1,201.5 L592.7,201.5 L598.2,201.5 L603.8,384.6 L609.4,201.5 L615.0,428.0  '/></g>
	</g>
	<g id="gnuplot_plot_2" ><title>score p10=0.1</title>
<g fill="none" color="black" stroke="currentColor" stroke-width="1.00" stroke-linecap="butt" stroke-linejoin="miter">
	<g transform="translate(379.7,475.9)" stroke="none" fill="black" font-family="Arial" font-size="12.00"  text-anchor="end">
		<text><tspan font-family="Arial" >score p10=0.1</tspan></text>
	</g>
</g>
<g fill="none" color="black" stroke="currentColor" stroke-width="1.00" stroke-linecap="butt" stroke-linejoin="miter">
	<path stroke='rgb(  0, 158, 115)'  d='M388.0,472.0 L430.2,472.0 M62.2,340.3 L67.8,340.3 L73.4,340.3 L79.0,340.3 L84.5,340.3 L90.1,340.3
		L95.7,340.3 L101.3,340.3 L106.9,340.3 L112.5,340.3 L118.0,340.3 L123.6,340.3 L129.2,340.3 L134.8,340.3
		L140.4,340.3 L146.0,340.3 L151.5,340.3 L157.1,340.3 L162.7,340.3 L168.3,340.3 L173.9,340.3 L179.5,340.3
		L185.0,340.3 L190.6,340.3 L196.2,340.3 L201.8,340.3 L207.4,340.3 L213.0,340.3 L218.5,340.3 L224.1,340.3
		L229.7,340.3 L235.3,340.3 L240.9,340.3 L246.5,340.3 L252.1,340.3 L257.6,340.3 L263.2,340.3 L268.8,340.3
		L274.4,340.3 L280.0,340.3 L285.6,340.3 L291.1,340.3 L296.7,340.3 L302.3,340.3 L307.9,340.3 L313.5,340.3
		L319.1,340.3 L324.6,340.3 L330.2,340.3 L335.8,340.3 L341.4,340.3 L347.0,340.3 L352.6,340.3 L358.1,340.3
		L363.7,340.3 L369.3,340.3 L374.9,340.3 L380.5,340.3 L386.1,340.3 L391.6,340.3 L397.2,340.3 L402.8,340.3
		L408.4,340.3 L414.0,340.3 L419.6,340.3 L425.1,340.3 L430.7,340.3 L436.3,340.3 L441.9,340.3 L447.5,340.3
		L453.1,340.3 L458.7,340.3 L464.2,340.3 L469.8,340.3 L475.4,340.3 L481.0,340.3 L486.6,340.3 L492.2,340.3
		L497.7,340.3 L503.3,340.3 L508.9,340.3 L514.5,340.3 L520.1,340.3 L525.7,340.3 L531.2,340.3 L536.8,340.3
		L542.4,340.3 L548.0,340.3 L553.6,340.3 L559.2,340.3 L564.7,340.3 L570.3,340.3 L575.9,340.3 L581.5,340.3
		L587.1,340.3 L592.7,340.3 L598.2,340.3 L603.8,340.3 L609.4,340.3 L615.0,340.3  '/></g>
	</g>
	<g id="gnuplot_plot_3" ><title>score median=0.25</title>
<g fill="none" color="black" stroke="currentColor" stroke-width="1.00" stroke-linecap="butt" stroke-linejoin="miter">
	<g transform="translate(579.6,475.9)" stroke="none" fill="black" font-family="Arial" font-size="12.00"  text-anchor="end">
		<text><tspan font-family="Arial" >score median=0.25</tspan></text>
	</g>
</g>
<g fill="none" color="black" stroke="currentColor" stroke-width="1.00" stroke-linecap="butt" stroke-linejoin="miter">
	<path stroke='rgb( 86, 180, 233)'  d='M587.9,472.0 L630.1,472.0 M62.2,124.9 L67.8,124.9 L73.4,124.9 L79.0,124.9 L84.5,124.9 L90.1,124.9
		L95.7,124.9 L101.3,124.9 L106.9,124.9 L112.5,124.9 L118.0,124.9 L123.6,124.9 L129.2,124.9 L134.8,124.9
		L140.4,124.9 L146.0,124.9 L151.5,124.9 L157.1,124.9 L162.7,124.9 L168.3,124.9 L173.9,124.9 L179.5,124.9
		L185.0,124.9 L190.6,124.9 L196.2,124.9 L201.8,124.9 L207.4,124.9 L213.0,124.9 L218.5,124.9 L224.1,124.9
		L229.7,124.9 L235.3,124.9 L240.9,124.9 L246.5,124.9 L252.1,124.9 L257.6,124.9 L263.2,124.9 L268.8,124.9
		L274.4,124.9 L280.0,124.9 L285.6,124.9 L291.1,124.9 L296.7,124.9 L302.3,124.9 L307.9,124.9 L313.5,124.9
		L319.1,124.9 L324.6,124.9 L330.2,124.9 L335.8,124.9 L341.4,124.9 L347.0,124.9 L352.6,124.9 L358.1,124.9
		L363.7,124.9 L369.3,124.9 L374.9,124.9 L380.5,124.9 L386.1,124.9 L391.6,124.9 L397.2,124.9 L402.8,124.9
		L408.4,124.9 L414.0,124.9 L419.6,124.9 L425.1,124.9 L430.7,124.9 L436.3,124.9 L441.9,124.9 L447.5,124.9
		L453.1,124.9 L458.7,124.9 L464.2,124.9 L469.8,124.9 L475.4,124.9 L481.0,124.9 L486.6,124.9 L492.2,124.9
		L497.7,124.9 L503.3,124.9 L508.9,124.9 L514.5,124.9 L520.1,124.9 L525.7,124.9 L531.2,124.9 L536.8,124.9
		L542.4,124.9 L548.0,124.9 L553.6,124.9 L559.2,124.9 L564.7,124.9 L570.3,124.9 L575.9,124.9 L581.5,124.9
		L587.1,124.9 L592.7,124.9 L598.2,124.9 L603.8,124.9 L609.4,124.9 L615.0,124.9  '/></g>
	</g>
<g fill="none" color="#FFFFFF" stroke="rgb( 86, 180, 233)" stroke-width="2.00" stroke-linecap="butt" stroke-linejoin="miter">
</g>
<g fill="none" color="black" stroke="currentColor" stroke-width="2.00" stroke-linecap="butt" stroke-linejoin="miter">
</g>
<g fill="none" color="black" stroke="black" stroke-width="1.00" stroke-linecap="butt" stroke-linejoin="miter">
</g>
<g fill="none" color="black" stroke="currentColor" stroke-width="1.00" stroke-linecap="butt" stroke-linejoin="miter">
	<path stroke='black'  d='M62.2,18.1 L62.2,436.0 L615.0,436.0 L615.0,18.1 L62.2,18.1 Z  '/></g>
<g fill="none" color="black" stroke="currentColor" stroke-width="1.00" stroke-linecap="butt" stroke-linejoin="miter">
</g>
</g>
</svg>
